scripts/peliculas/Kodachrome64_K14.costyle
<?xml version="1.0"?>
<SL Engine="1200">
    <E K="Name" V="Kodachrome 64 K-14" />
    <E K="ICCProfile" V="Kodachrome64_K14.icc" />
    <E K="UUID" V="7C0DA3E1-6B54-4F2A-9E31-A1B2C3D4E5F6" />
</SL>
